svg/black/miota.svg

<svg xmlns="http://www.w3.org/2000/svg" width="32" height="32" viewBox="0 0 32 32">
  <path fill-rule="evenodd" d="M16,32 C7.163444,32 0,24.836556 0,16 C0,7.163444 7.163444,0 16,0 C24.836556,0 32,7.163444 32,16 C32,24.836556 24.836556,32 16,32 Z M22.256625,6.77011184 C22.256625,6.0684612 21.6865593,5.5 20.9834782,5.5 C20.2793069,5.5 19.7086182,6.0684612 19.7086182,6.77011184 C19.7086182,7.47145201 20.2793069,8.03960275 20.9834782,8.03960275 C21.6865593,8.03960275 22.256625,7.47145201 22.256625,6.77011184 Z M21.3387569,11.1937707 C21.9347997,11.1937707 22.4179878,10.7122057 22.4179878,10.1181652 C22.4179878,9.52412459 21.9347997,9.04255956 21.3387569,9.04255956 C20.7427141,9.04255956 20.259526,9.52412459 20.259526,10.1181652 C20.259526,10.7122057 20.7427141,11.1937707 21.3387569,11.1937707 Z M21.004038,13.8466932 C21.5078658,13.8466932 21.9162989,13.4396321 21.9162989,12.9374968 C21.9162989,12.4353615 21.5078658,12.0283004 21.004038,12.0283004 C20.5002102,12.0283004 20.0917771,12.4353615 20.0917771,12.9374968 C20.0917771,13.4396321 20.5002102,13.8466932 21.004038,13.8466932 Z M20.9503023,15.2192584 C20.9503023,14.7906617 20.6009424,14.4424753 20.170901,14.4424753 C19.7402366,14.4424753 19.3908767,14.7906617 19.3908767,15.2192584 C19.3908767,15.6480104 19.7402366,15.996352 20.170901,15.996352 C20.6009424,15.996352 20.9503023,15.6480104 20.9503023,15.2192584 Z M19.7160945,16.9434252 C19.7160945,16.5749033 19.4167321,16.2756152 19.0474354,16.2756152 C18.6772042,16.2756152 18.3772189,16.5749033 18.3772189,16.9434252 C18.3772189,17.3121022 18.6772042,17.610459 19.0474354,17.610459 C19.4167321,17.610459 19.7160945,17.3121022 19.7160945,16.9434252 Z M18.3661602,18.1660359 C18.3661602,17.8496722 18.1086961,17.5932282 17.7909546,17.5933834 C17.4733688,17.5933834 17.2166835,17.8496722 17.2166835,18.1660359 C17.2166835,18.4831758 17.4735245,18.7394645 17.7909546,18.7394645 C18.1088519,18.7394645 18.3661602,18.4831758 18.3661602,18.1660359 Z M25.2395015,10.7574123 C25.375632,10.1774639 25.0142789,9.59720508 24.431597,9.46106623 C23.8493823,9.32523784 23.2670119,9.6853771 23.1304142,10.2659464 C22.9936607,10.8465158 23.3554811,11.4270851 23.9376958,11.5630687 C24.5205334,11.6985866 25.1033711,11.3379817 25.2395015,10.7574123 Z M24.7217697,13.5602893 C24.8371847,13.0688234 24.5308133,12.5773575 24.0370679,12.4618646 C23.54488,12.3463716 23.0509788,12.6520243 22.9358754,13.143335 C22.8201489,13.6344904 23.1262088,14.1267325 23.6188639,14.241294 C24.1129209,14.3570974 24.6060433,14.0517552 24.7217697,13.5602893 Z M23.758421,15.7971888 C23.8567028,15.3811659 23.5972139,14.9652982 23.1804118,14.8682779 C22.7636096,14.7712576 22.3455615,15.0289435 22.2485257,15.4445007 C22.1510226,15.8605237 22.4100443,16.2756152 22.8265349,16.3729459 C23.2438043,16.4704319 23.6610737,16.2124356 23.758421,15.7971888 Z M22.5159581,17.4993125 C22.5989759,17.1444512 22.3776471,16.7889689 22.0214339,16.7059195 C21.6649092,16.6222492 21.3082288,16.8433002 21.2256783,17.1983168 C21.1418817,17.5533334 21.3633663,17.9080396 21.7195795,17.9917098 C22.0762599,18.074604 22.4318501,17.8549501 22.5159581,17.4993125 Z M21.1590149,18.6876169 C21.2306625,18.3821194 21.0414193,18.0773982 20.735048,18.0061465 C20.4289881,17.9341186 20.122461,18.1241231 20.0511249,18.4283787 C19.9797888,18.7338762 20.1696549,19.0392184 20.475559,19.1103148 C20.7816189,19.1823427 21.0872115,18.9921829 21.1590149,18.6876169 Z M19.8042522,19.4390971 C19.8654641,19.1767543 19.7022322,18.9148772 19.4390052,18.8530947 C19.1767126,18.7922436 18.9137971,18.9549272 18.8521178,19.216649 C18.7907501,19.4788366 18.953982,19.7405585 19.2168976,19.8023411 C19.4793459,19.8631922 19.7425729,19.7011295 19.8042522,19.4390971 Z M26.9076446,14.5826502 C27.1297522,14.1258011 26.9373939,13.5759678 26.4791608,13.3544511 C26.0201489,13.1337106 25.4692411,13.3251122 25.2479123,13.7813403 C25.025649,14.2386551 25.2172285,14.7884884 25.6759289,15.0095394 C26.1340063,15.2307456 26.6858486,15.0398097 26.9076446,14.5826502 Z M25.946788,16.7976619 C26.1360311,16.4092703 25.9727992,15.941555 25.5820082,15.7527923 C25.1919961,15.5657372 24.7231715,15.7277999 24.5336169,16.1165019 C24.3457756,16.5053592 24.5082287,16.9732298 24.8988639,17.1609058 C25.2893433,17.349358 25.7572333,17.1869849 25.946788,16.7976619 Z M24.7387471,18.4788293 C24.901979,18.1430615 24.7613317,17.7391467 24.4238092,17.5766183 C24.0872212,17.413469 23.6814777,17.5544201 23.5185573,17.8900326 C23.3553254,18.2265765 23.4962842,18.6301809 23.8328722,18.7923988 C24.1700832,18.9547719 24.5758267,18.8149075 24.7387471,18.4788293 Z M23.3934855,19.6658917 C23.5350674,19.3738995 23.4123319,19.0227637 23.1196671,18.8815022 C22.827781,18.7408616 22.4757732,18.8627191 22.3335683,19.1540904 C22.1924536,19.4457721 22.3148776,19.7975288 22.6075425,19.9384799 C22.9003631,20.07881 23.2515921,19.9575735 23.3934855,19.6658917 Z M22.0382555,20.3981232 C22.1592777,20.1483542 22.0553887,19.8492213 21.8049336,19.7289161 C21.55479,19.6083005 21.2544931,19.7127719 21.1334709,19.9614543 C21.0124488,20.2102919 21.1171166,20.5106667 21.3671044,20.6306614 C21.617248,20.751277 21.9177007,20.6472712 22.0382555,20.3981232 Z M20.7654203,20.7668002 C20.8680633,20.5561498 20.7789711,20.3014134 20.5668319,20.1989599 C20.3546927,20.0966618 20.0989419,20.1854547 19.9962989,20.3968813 C19.8936559,20.6083079 19.9830597,20.8628891 20.1947316,20.965032 C20.4070266,21.0674855 20.6627773,20.9786925 20.7654203,20.7668002 Z M21.8013512,25.6229367 C22.4111346,25.973762 23.1900686,25.7648192 23.5419206,25.1570841 C23.8933054,24.5498148 23.6827238,23.7734974 23.0734076,23.423293 C22.463157,23.0730886 21.6851575,23.2820315 21.3333054,23.8893008 C20.9819207,24.4967253 21.1915678,25.2739742 21.8013512,25.6229367 Z M18.8108426,24.0907925 C19.3271726,24.3879074 19.9864863,24.2109424 20.2836681,23.6961916 C20.5813171,23.1819066 20.4040672,22.523721 19.8883602,22.2275375 C19.3709399,21.931354 18.711782,22.108319 18.4146002,22.6226041 C18.1160166,23.1376653 18.2948241,23.7947642 18.8108426,24.0907925 Z M16.6093922,22.2508224 C17.0464425,22.5009018 17.6040478,22.3520339 17.8551259,21.9158308 C18.1072943,21.4810247 17.9563671,20.925603 17.5200955,20.6745921 C17.0836681,20.4238918 16.5259071,20.5735358 16.2740502,21.0083419 C16.0223491,21.4442346 16.1724975,21.9993458 16.6093922,22.2508224 Z M15.1075961,20.2770419 C15.4806309,20.4911074 15.957399,20.3633511 16.1718745,19.9917246 C16.3872846,19.6196325 16.2590977,19.1449317 15.8865302,18.9305557 C15.5127166,18.7160244 15.0368831,18.8440912 14.821473,19.2154072 C14.6066859,19.5876546 14.7350286,20.0623554 15.1075961,20.2770419 Z M14.2253961,18.3512282 C14.5453182,18.5350234 14.9552671,18.4255845 15.1398375,18.10534 C15.3240965,17.786803 15.2136657,17.3786969 14.8942109,17.1949017 C14.5739772,17.0109513 14.1641841,17.1197692 13.9793021,17.4395481 C13.7947317,17.7591717 13.9048509,18.166812 14.2253961,18.3512282 Z M13.8361627,16.573972 C14.1109157,16.7318433 14.462612,16.6376173 14.6211712,16.3640977 C14.7795747,16.0896467 14.6848753,15.7392871 14.410278,15.5812605 C14.1350578,15.4235443 13.7838288,15.5173047 13.6252695,15.7914452 C13.4663988,16.0662066 13.561254,16.4162558 13.8361627,16.573972 Z M17.5856686,26.5 C18.1838619,26.5 18.6687934,26.0166975 18.6687934,25.4205136 C18.6687934,24.8243297 18.1838619,24.3410272 17.5856686,24.3410272 C16.9874753,24.3410272 16.5025438,24.8243297 16.5025438,25.4205136 C16.5025438,26.0166975 16.9874753,26.5 17.5856686,26.5 Z M14.6677421,24.362294 C15.0381291,24.7067548 15.6180074,24.6884374 15.9642522,24.3199156 C16.3103413,23.9512385 16.2911834,23.3734634 15.9217309,23.0276055 C15.551967,22.6831447 14.9717772,22.7014621 14.6252209,23.0701392 C14.2791318,23.438661 14.2979782,24.0165914 14.6677421,24.362294 Z M13.2033275,22.4141269 C13.5163963,22.705343 14.0073382,22.6895092 14.2996915,22.3779577 C14.5928237,22.0664062 14.5769366,21.5771136 14.2640235,21.2854318 C13.9514219,20.9932843 13.4609473,21.0092733 13.1676594,21.32098 C12.8749945,21.6325315 12.8910374,22.121669 13.2033275,22.4141269 Z M12.3444908,20.490176 C12.6117675,20.7401002 13.030906,20.7259741 13.2810495,20.4600609 C13.5310374,20.1935268 13.5174866,19.7757963 13.2500542,19.5260273 C12.9827775,19.276724 12.5645735,19.2910054 12.3136512,19.5569186 C12.0635076,19.8232974 12.0770583,20.2414936 12.3444908,20.490176 Z M11.9879661,18.7262698 C12.2181729,18.9404905 12.5778128,18.9286929 12.7929113,18.6998802 C13.0075426,18.4709124 12.996484,18.112015 12.7665886,17.897639 C12.5366933,17.6837287 12.1765862,17.6955263 11.9616434,17.9246494 C11.7473236,18.1533068 11.7586938,18.5122042 11.9879661,18.7262698 Z M12.0117967,17.1799994 C12.2083603,17.364726 12.5180026,17.3541702 12.7024173,17.1578012 C12.887455,16.9612769 12.8768636,16.6532957 12.6801442,16.4695005 C12.4829576,16.2850844 12.1736268,16.2951745 11.9890564,16.4916988 C11.8043302,16.6880678 11.81461,16.9965147 12.0117967,17.1799994 Z M12.6869975,25.7398267 C12.9745224,26.1592648 13.5473917,26.2680827 13.9688665,25.9819893 C14.3901856,25.6969826 14.4990588,25.1251063 14.2126241,24.705513 C13.9263452,24.2857644 13.3526971,24.176636 12.9312223,24.4628847 C12.5099033,24.7478914 12.4016531,25.319923 12.6869975,25.7398267 Z M11.2408062,23.8037677 C11.4850311,24.1609576 11.9723905,24.2531656 12.3312516,24.0100716 C12.6893338,23.7674433 12.7824757,23.2806344 12.5385623,22.9232893 C12.2948047,22.5667204 11.806355,22.4745123 11.4484285,22.7171406 C11.0900347,22.9599242 10.9967371,23.4464226 11.2408062,23.8037677 Z M10.3827483,21.920643 C10.5928627,22.2301764 11.0149605,22.3090345 11.3249143,22.1002469 C11.634245,21.8900622 11.7147707,21.4700032 11.503566,21.1612459 C11.2934516,20.8521781 10.8715095,20.7723886 10.5617115,20.9825733 C10.2525366,21.1924476 10.1720109,21.6123513 10.3827483,21.920643 Z M10.022797,20.1672925 C10.2059656,20.4346028 10.5713684,20.5047679 10.8398911,20.3222145 C11.1095042,20.1405925 11.179127,19.7750201 10.9958026,19.5072442 C10.8126339,19.2391578 10.4472311,19.1699241 10.1780854,19.3523222 C9.90956262,19.5348756 9.8404071,19.8992061 10.022797,20.1672925 Z M10.0623589,18.6314227 C10.2185818,18.8605458 10.5308719,18.9198446 10.7606115,18.7636808 C10.9909741,18.6093797 11.050317,18.2968968 10.8936269,18.067308 C10.7374039,17.8392716 10.4248023,17.7795071 10.1953742,17.93505 C9.96501163,18.0910586 9.90613599,18.4024549 10.0623589,18.6314227 Z M10.3771411,17.3476504 C10.5093776,17.5420015 10.774318,17.5922968 10.9705701,17.4598835 C11.1654205,17.3282464 11.2158853,17.0627989 11.0831815,16.8689136 C10.9506334,16.6744073 10.6847585,16.6239568 10.4894409,16.7555939 C10.2955251,16.8886281 10.2447488,17.1526785 10.3771411,17.3476504 Z M5.63749649,15.8060371 C5.02880338,16.1560862 4.81853325,16.9328694 5.1710083,17.5410701 C5.5222373,18.147408 6.30054831,18.3560404 6.91048746,18.0061465 C7.51933632,17.6554764 7.7294507,16.8788485 7.37744292,16.2715792 C7.02574665,15.6641546 6.24696837,15.4556774 5.63749649,15.8060371 Z M8.46726524,13.9954059 C7.95155827,14.2915894 7.77384106,14.9489988 8.07164588,15.46406 C8.36913918,15.9774137 9.02923165,16.153913 9.54525014,15.8577295 C10.0615801,15.560925 10.2382071,14.9036709 9.94102526,14.3890753 C9.64353196,13.8743246 8.98281646,13.6979805 8.46726524,13.9954059 Z M11.1680683,13.0186833 C10.7321082,13.2698494 10.5821155,13.8262025 10.8338167,14.2606981 C11.0861408,14.6956594 11.6429673,14.8451482 12.0803292,14.5947583 C12.5161335,14.3439027 12.6661262,13.7875496 12.4144251,13.3518122 C12.1630354,12.9173165 11.6043399,12.7681382 11.1680683,13.0186833 Z M13.6346149,12.7128754 C13.2614243,12.9275619 13.1333932,13.4022627 13.348336,13.7734235 C13.5637461,14.1461366 14.0405141,14.2734272 14.4138604,14.0587407 C14.7859607,13.8442095 14.9144591,13.3698191 14.6987375,12.997727 C14.4837947,12.6259453 14.0074939,12.4983442 13.6346149,12.7128754 Z M15.7486864,12.9168509 C15.4286085,13.101267 15.318645,13.5092179 15.5039943,13.828531 C15.6880975,14.1479993 16.0978906,14.2574382 16.4179685,14.0727116 C16.7378906,13.8892269 16.8481656,13.4806551 16.6631279,13.1618076 C16.4782459,12.8423393 16.0698546,12.7329004 15.7486864,12.9168509 Z M17.486608,13.4714964 C17.2121665,13.6299887 17.1176229,13.9801931 17.2760264,14.2544888 C17.4348971,14.5289398 17.7861261,14.621924 18.0611906,14.4643631 C18.3364109,14.3063364 18.4309546,13.9559768 18.271928,13.6816811 C18.1135245,13.4078511 17.761984,13.3139354 17.486608,13.4714964 Z M7.61388,11.2387882 C7.04116646,11.4112514 6.71719469,12.013398 6.89055074,12.584343 C7.063128,13.154667 7.66777146,13.4775504 8.23970623,13.3055529 C8.81210826,13.1337106 9.13639154,12.5312535 8.96334701,11.960619 C8.79076974,11.3899846 8.18628204,11.0669458 7.61388,11.2387882 Z M10.3081413,10.2861267 C9.82280672,10.4318899 9.54883252,10.9426047 9.69461981,11.4255328 C9.84180891,11.9086161 10.352999,12.1821357 10.8381778,12.0368381 C11.3225779,11.8904539 11.5974867,11.3803601 11.4510763,10.8968111 C11.304043,10.4140382 10.7931645,10.1402082 10.3081413,10.2861267 Z M12.7337242,10.0000333 C12.323308,10.1235983 12.0906091,10.5546788 12.2149021,10.9637163 C12.3384163,11.3718224 12.7718843,11.6031187 13.1812102,11.4797089 C13.5919378,11.3559886 13.8237022,10.9252186 13.6998765,10.5160259 C13.5762065,10.1071436 13.14305,9.87584731 12.7337242,10.0000333 Z M14.834868,10.2231023 C14.4837947,10.3278842 14.2856735,10.696406 14.3914316,11.0459895 C14.4964109,11.3951072 14.8667979,11.5927181 15.2172481,11.487781 C15.5675426,11.3820677 15.7656638,11.0135459 15.6602172,10.6645833 C15.5536803,10.3146894 15.1843837,10.1176995 14.834868,10.2231023 Z M16.5447536,10.799946 C16.2432106,10.8904466 16.0728139,11.207276 16.163931,11.5064089 C16.255048,11.8064732 16.5720108,11.9766079 16.8732422,11.8859522 C17.1740064,11.7952965 17.3447146,11.4789327 17.2540648,11.178558 C17.1624805,10.8784937 16.8452062,10.7096008 16.5447536,10.799946 Z M17.8744396,11.5952018 C17.6165082,11.6720419 17.4704094,11.9436987 17.5481315,12.201695 C17.6264766,12.4592256 17.898426,12.6049889 18.1569804,12.5273727 C18.4155347,12.4496012 18.5616335,12.1784101 18.4837557,11.9201033 C18.4052549,11.6630384 18.1337728,11.5168095 17.8744396,11.5952018 Z M10.1047245,7.88825112 C9.59711677,7.92442028 9.21551541,8.36465949 9.25180648,8.87164864 C9.2882533,9.37755117 9.73044361,9.75849158 10.2382071,9.7217015 C10.7458147,9.68444571 11.1280391,9.2442065 11.0915923,8.73814874 C11.054834,8.23131482 10.6126436,7.85146103 10.1047245,7.88825112 Z M12.5108378,7.61038505 C12.0783044,7.64205247 11.7532423,8.01631789 11.7850165,8.44770884 C11.8160118,8.87754748 12.1918502,9.20213851 12.6236049,9.17031586 C13.0569172,9.13911414 13.3813562,8.76500395 13.3502051,8.333613 C13.3192097,7.90315344 12.9427483,7.57933856 12.5108378,7.61038505 Z M14.5750675,7.81389478 C14.2010982,7.84074999 13.9205823,8.16378871 13.947528,8.53665703 C13.9750967,8.90859396 14.2995358,9.18816759 14.6733494,9.16193331 C15.0465399,9.13445717 15.3270558,8.81126322 15.3001101,8.43917106 C15.2733201,8.06676843 14.9482581,7.78688434 14.5750675,7.81389478 Z M16.2784114,8.38235598 C15.9539724,8.40641701 15.710059,8.6867668 15.7337339,9.01058168 C15.7570972,9.33315469 16.0388592,9.57609346 16.363454,9.55249813 C16.6874257,9.52921327 16.9311833,9.24824255 16.9079757,8.9250486 C16.8843009,8.60200989 16.6023832,8.35891589 16.2784114,8.38235598 Z M17.5917431,9.18568387 C17.3148095,9.20632979 17.1065642,9.44600868 17.1269682,9.72216719 C17.1465934,9.99832571 17.3877032,10.2057162 17.6649482,10.1856913 C17.9418818,10.1653558 18.1501271,9.92552169 18.1301904,9.64951841 C18.1100979,9.3728942 17.8689881,9.16596935 17.5917431,9.18568387 Z M18.5485501,10.1010896 C18.3138263,10.1184756 18.1370436,10.3221406 18.154021,10.5562311 C18.1713099,10.7906321 18.3759728,10.9672866 18.6106966,10.950211 C18.8457319,10.9331355 19.022203,10.7290048 19.0055372,10.4947591 C18.9887156,10.2603581 18.7840526,10.0849454 18.5485501,10.1010896 Z"/>
</svg>

<svg xmlns="http://www.w3.org/2000/svg" width="32" height="32"><path fill-rule="evenodd" d="M16 32C7.163 32 0 24.837 0 16S7.163 0 16 0s16 7.163 16 16-7.163 16-16 16zm6.257-25.23c0-.702-.57-1.27-1.274-1.27-.704 0-1.274.568-1.274 1.27 0 .701.57 1.27 1.274 1.27.704 0 1.274-.569 1.274-1.27zm-.918 4.424c.596 0 1.079-.482 1.079-1.076 0-.594-.483-1.075-1.08-1.075-.595 0-1.078.481-1.078 1.075s.483 1.076 1.079 1.076zm-.335 2.653a.91.91 0 0 0 .912-.91.91.91 0 0 0-.912-.909.91.91 0 0 0-.912.91c0 .502.408.909.912.909zm-.054 1.372a.779.779 0 0 0-1.56 0 .779.779 0 0 0 1.56 0zm-1.234 1.724a.668.668 0 1 0-1.337.002.668.668 0 0 0 1.337-.002zm-1.35 1.223a.574.574 0 1 0-1.147.002.574.574 0 0 0 1.147-.002zm6.874-7.409a1.083 1.083 0 0 0-2.11-.491 1.084 1.084 0 0 0 2.11.491zm-.518 2.803a.916.916 0 1 0-1.786-.417.917.917 0 1 0 1.786.417zm-.964 2.237a.776.776 0 0 0-1.51-.353.775.775 0 1 0 1.51.353zM22.516 17.5a.66.66 0 0 0-.495-.793.661.661 0 1 0 .495.793zm-1.357 1.189a.569.569 0 1 0-1.108-.26.569.569 0 1 0 1.108.26zm-1.355.751a.488.488 0 1 0-.95-.22.488.488 0 0 0 .95.22zm7.104-4.856a.918.918 0 0 0-.429-1.229.923.923 0 0 0-1.231.427.917.917 0 0 0 .428 1.229.923.923 0 0 0 1.232-.427zm-.961 2.215a.78.78 0 0 0-.365-1.045.788.788 0 0 0-1.048.364.785.785 0 0 0 1.413.681zm-1.208 1.68a.678.678 0 0 0-1.22-.589.674.674 0 0 0 .314.903.68.68 0 0 0 .906-.313zm-1.346 1.188a.587.587 0 0 0-.273-.784.587.587 0 1 0-.512 1.057.59.59 0 0 0 .785-.273zm-1.355.732a.504.504 0 0 0-.905-.437.503.503 0 0 0 .905.437zm-1.273.369a.425.425 0 0 0-.198-.568.425.425 0 1 0-.372.766.428.428 0 0 0 .57-.198zm1.036 4.856c.61.35 1.39.142 1.74-.466a1.268 1.268 0 0 0-.468-1.734 1.277 1.277 0 0 0-1.74.466 1.267 1.267 0 0 0 .468 1.734zm-2.99-1.532a1.08 1.08 0 0 0 1.473-.395 1.074 1.074 0 0 0-.396-1.468 1.081 1.081 0 0 0-1.473.395 1.072 1.072 0 0 0 .396 1.468zm-2.202-1.84a.913.913 0 0 0 1.246-.335.907.907 0 0 0-.335-1.241.914.914 0 0 0-1.246.333.908.908 0 0 0 .335 1.243zm-1.501-1.974a.78.78 0 0 0 1.064-.285.775.775 0 0 0-.285-1.061.777.777 0 1 0-.779 1.346zm-.883-1.926a.67.67 0 0 0 .915-.246.666.666 0 0 0-.246-.91.671.671 0 0 0-.915.245.666.666 0 0 0 .246.911zm-.389-1.777a.573.573 0 1 0 .574-.993.576.576 0 0 0-.785.21.572.572 0 0 0 .211.783zm3.75 9.926c.598 0 1.083-.483 1.083-1.08 0-.596-.485-1.079-1.083-1.079-.599 0-1.083.483-1.083 1.08 0 .596.484 1.079 1.083 1.079zm-2.918-2.138a.92.92 0 0 0 1.296-.042.913.913 0 0 0-.042-1.292.92.92 0 0 0-1.297.042.912.912 0 0 0 .043 1.292zm-1.465-1.948a.778.778 0 0 0 1.097-.036.77.77 0 0 0-.036-1.093.777.777 0 0 0-1.096.036.772.772 0 0 0 .035 1.093zm-.859-1.924c.268.25.687.236.937-.03a.66.66 0 0 0-.03-.934.664.664 0 0 0-.937.03.658.658 0 0 0 .03.934zm-.356-1.764a.57.57 0 0 0 .805-.026.566.566 0 0 0-.026-.802.57.57 0 0 0-.805.027.566.566 0 0 0 .026.801zm.024-1.546a.489.489 0 0 0 .668-.71.49.49 0 0 0-.69.022.485.485 0 0 0 .022.688zm.675 8.56c.288.42.86.528 1.282.242a.916.916 0 0 0 .244-1.276.924.924 0 0 0-1.282-.243.918.918 0 0 0-.244 1.277zm-1.446-1.936a.786.786 0 0 0 1.09.206.78.78 0 0 0 .208-1.087.787.787 0 0 0-1.09-.206.78.78 0 0 0-.208 1.087zm-.858-1.883a.68.68 0 0 0 .942.18c.31-.21.39-.631.179-.94a.679.679 0 0 0-.942-.178c-.31.21-.39.63-.18.938zm-.36-1.754a.59.59 0 0 0 .817.155.584.584 0 0 0 .156-.815.59.59 0 0 0-.818-.155.586.586 0 0 0-.155.815zm.04-1.536a.503.503 0 0 0 .83-.564.504.504 0 0 0-.698-.132.5.5 0 0 0-.133.696zm.314-1.283a.428.428 0 0 0 .706-.48.427.427 0 0 0-.706.479zm-4.74-1.542a1.268 1.268 0 0 0-.466 1.735c.351.606 1.13.815 1.74.465.608-.35.818-1.127.466-1.734a1.276 1.276 0 0 0-1.74-.466zm2.83-1.81a1.073 1.073 0 0 0-.395 1.468c.297.513.957.69 1.473.394.517-.297.693-.954.396-1.469a1.08 1.08 0 0 0-1.474-.394zm2.701-.977a.908.908 0 0 0-.334 1.242.915.915 0 0 0 1.246.334.91.91 0 0 0 .334-1.243.915.915 0 0 0-1.246-.333zm2.467-.306a.775.775 0 0 0-.287 1.06.78.78 0 0 0 1.066.286.775.775 0 0 0 .285-1.061.78.78 0 0 0-1.064-.285zm2.114.204a.666.666 0 0 0-.245.912.67.67 0 0 0 1.16-.667.67.67 0 0 0-.915-.245zm1.738.554a.573.573 0 1 0 .574.993.571.571 0 0 0 .21-.782.577.577 0 0 0-.784-.21zM7.614 11.24a1.078 1.078 0 0 0-.723 1.345 1.084 1.084 0 0 0 2.072-.623 1.084 1.084 0 0 0-1.35-.722zm2.694-.953a.914.914 0 1 0 .53 1.75.915.915 0 1 0-.53-1.75zM12.734 10a.772.772 0 1 0 .447 1.48.772.772 0 1 0-.447-1.48zm2.1.223a.66.66 0 0 0-.443.823.663.663 0 0 0 1.27-.381.663.663 0 0 0-.826-.442zm1.71.577a.566.566 0 1 0 .33 1.086.568.568 0 1 0-.33-1.086zm1.33.795a.486.486 0 1 0 .283.932.487.487 0 1 0-.283-.932zm-7.77-3.707a.92.92 0 1 0 .134 1.834.922.922 0 0 0 .854-.984.92.92 0 0 0-.987-.85zm2.407-.278a.783.783 0 1 0 .113 1.56.783.783 0 1 0-.113-1.56zm2.064.204a.676.676 0 1 0 .098 1.348.677.677 0 1 0-.098-1.348zm1.703.568a.588.588 0 1 0 .084 1.173.588.588 0 0 0-.084-1.173zm1.314.804a.502.502 0 1 0 .071 1 .502.502 0 0 0-.071-1zm.957.915a.426.426 0 1 0 .061.85.426.426 0 0 0-.061-.85z"/></svg>
